mresponse/frontend/app/public/static/media/icons/respond.svg

<svg width="20" height="20" xmlns="http://www.w3.org/2000/svg" xmlns:xlink="http://www.w3.org/1999/xlink"><defs><path d="M17 0H3C1.3 0 0 1.3 0 3v16c0 .4.2.8.6.9.1.1.3.1.4.1.3 0 .5-.1.7-.3L5.4 16H17c1.7 0 3-1.3 3-3V3c0-1.7-1.3-3-3-3zm1 13c0 .6-.4 1-1 1H5c-.3 0-.5.1-.7.3L2 16.6V3c0-.6.4-1 1-1h14c.6 0 1 .4 1 1v10z" id="a"/></defs><g fill="none" fill-rule="evenodd"><path d="M17 0H3C1.3 0 0 1.3 0 3v16c0 .4.2.8.6.9.1.1.3.1.4.1.3 0 .5-.1.7-.3L5.4 16H17c1.7 0 3-1.3 3-3V3c0-1.7-1.3-3-3-3zm1 13c0 .6-.4 1-1 1H5c-.3 0-.5.1-.7.3L2 16.6V3c0-.6.4-1 1-1h14c.6 0 1 .4 1 1v10z" fill="#000" fill-rule="nonzero"/><mask id="b" fill="#fff"><use xlink:href="#a"/></mask><g mask="url(#b)" fill="#F9F9FA" fill-rule="nonzero"><path d="M-2-2h24v24H-2z"/></g><circle fill="#FFF" fill-rule="nonzero" cx="10" cy="8" r="1"/><circle fill="#FFF" fill-rule="nonzero" cx="14" cy="8" r="1"/><circle fill="#FFF" fill-rule="nonzero" cx="6" cy="8" r="1"/></g></svg>

<?xml version="1.0" encoding="UTF-8"?>
<svg width="20px" height="20px" viewBox="0 0 20 20" version="1.1" xmlns="http://www.w3.org/2000/svg" xmlns:xlink="http://www.w3.org/1999/xlink">
    <!-- Generator: Sketch 51.2 (57519) - http://www.bohemiancoding.com/sketch -->
    <title>Group</title>
    <desc>Created with Sketch.</desc>
    <defs>
        <path d="M17,0 L3,0 C1.3,0 0,1.3 0,3 L0,19 C0,19.4 0.2,19.8 0.6,19.9 C0.7,20 0.9,20 1,20 C1.3,20 1.5,19.9 1.7,19.7 L5.4,16 L17,16 C18.7,16 20,14.7 20,13 L20,3 C20,1.3 18.7,0 17,0 Z M18,13 C18,13.6 17.6,14 17,14 L5,14 C4.7,14 4.5,14.1 4.3,14.3 L2,16.6 L2,3 C2,2.4 2.4,2 3,2 L17,2 C17.6,2 18,2.4 18,3 L18,13 Z" id="path-1"></path>
    </defs>
    <g id="Page-1" stroke="none" stroke-width="1" fill="none" fill-rule="evenodd">
        <g id="group_3" transform="translate(-20.000000, -21.000000)">
            <g id="Group" transform="translate(20.000000, 21.000000)">
                <g id="b-link" fill="#000000" fill-rule="nonzero">
                    <path d="M17,0 L3,0 C1.3,0 0,1.3 0,3 L0,19 C0,19.4 0.2,19.8 0.6,19.9 C0.7,20 0.9,20 1,20 C1.3,20 1.5,19.9 1.7,19.7 L5.4,16 L17,16 C18.7,16 20,14.7 20,13 L20,3 C20,1.3 18.7,0 17,0 Z M18,13 C18,13.6 17.6,14 17,14 L5,14 C4.7,14 4.5,14.1 4.3,14.3 L2,16.6 L2,3 C2,2.4 2.4,2 3,2 L17,2 C17.6,2 18,2.4 18,3 L18,13 Z" id="b"></path>
                </g>
                <g id="Clipped">
                    <mask id="mask-2" fill="white">
                        <use xlink:href="#path-1"></use>
                    </mask>
                    <g id="b"></g>
                    <g id="Group" mask="url(#mask-2)" fill="#F9F9FA" fill-rule="nonzero">
                        <g transform="translate(-2.000000, -2.000000)" id="Shape">
                            <polygon points="0 0 24 0 24 24 0 24"></polygon>
                        </g>
                    </g>
                </g>
                <circle id="Oval" fill="#FFFFFF" fill-rule="nonzero" cx="10" cy="8" r="1"></circle>
                <circle id="Oval" fill="#FFFFFF" fill-rule="nonzero" cx="14" cy="8" r="1"></circle>
                <circle id="Oval" fill="#FFFFFF" fill-rule="nonzero" cx="6" cy="8" r="1"></circle>
            </g>
        </g>
    </g>
</svg>
